X:1
T:Eliada, LMD
T:Eliada, LMD
T:Johann Crüger, 1649
T:Public Domain Courtesy of the Cyber Hymnal™
C:Johann Crüger, 1649
Z:Public Domain
Z:Courtesy of the Cyber Hymnal™
%%score ( 1 2 ) ( 3 4 )
L:1/8
Q:1/4=105
M:4/4
K:Eb
V:1 treble 
V:2 treble 
V:3 bass 
V:4 bass 
V:1
|: [EG]2 | [DF]2 [CE]2 [B,F]2 [B,G]2 | B3 (z A) !fermata![EG]2 [DB]2 | [EG]2 [FA]2 [EG]2 [DF]2 | %4
 E2 ([EG][DF]) !fermata!E2 :| [EB]2 | ([Ec][Fd]) [Ge]2 [Fd]2 [GB]2 | %7
 [Bd]2 c2 !fermata![DB]2 [GB]2 | (cd) [Ge]2 [^Fd]2 [GB]2 | [Gc]2 c2 !fermata![DB]2 [DF]2 | %10
 G2 [CA]2 [FA]2 [=EG]2 | F2 ([_DF][C=E]) !fermata![CF]2 [_EG]2 | [B,B]2 [EA]2 !fermata![DG]2 E2 | %13
 [EG]2 F2 E8 |] %14
V:2
|: x2 | x8 | E2 D2 x5 | x8 | E2 E2 x2 :| x2 | x8 | x2 (B=A) x4 | G2 x6 | x2 (FE) x4 | (=E_D) x6 | %11
 F2 x6 | x6 E2 | x2 (ED) E8 |] %14
V:3
|: [E,B,]2 | [B,,A,]2 [C,G,]2 [D,F,]2 E,2 | [G,B,]2 ([F,C][B,,B,]) !fermata![E,B,]2 [B,,F,]2 x | %3
 [C,E,]2 [D,B,]2 [E,B,]2 [A,B,]2 | [G,B,]2 [B,,A,]2 [E,G,]2 :| [E,G,]2 | %6
 A,2 ([G,B,][=A,C]) [B,D]2 [E,E]2 | F2 (FE) !fermata![B,,D]2 D2 | %8
 ([E,C][D,=B,]) (C_B,) [D,=A,]2 [G,B,]2 | [E,B,]2 [F,=A,]2 !fermata![B,,B,]2 [B,,B,]2 | %10
 [E,B,]2 [F,A,]2 [F,C]2 CB, | [_D,A,]2 B,2 !fermata![F,A,]2 [E,B,]2 | %12
 [D,F,]2 (E,F,) !fermata![=B,,G,]2 [C,G,]2 | [G,,B,]2 ([A,,C]B,/A,/) [E,G,]8 |] %14
V:4
|: x2 | x6 E,2 | x9 | x8 | x6 :| x2 | =A,2 x6 | D,E, F,2 x (G,F,) x | x2 C,2 x4 | x8 | x6 C,2 | %11
 x2 (B,,C,) x4 | x2 C,2 x4 | x3 B,, x8 |] %14

